X: 45
T: No_139_I_Am_Dancing.krn
N: Derived from No_139_I_Am_Dancing.krn
%%abc-version 2.0
%%abcx-abcm2ps-target-version 5.9.1 (29 Sep 2008)
%%abc-creator hum2abc beta
%%abcx-conversion-date 2019/03/15 08:37:56
%%humdrum-veritas 2557214279
%%humdrum-veritas-data 226484268
%%linebreak <none>
%%barnumbers 0
L: 1/4
M: 2/4
K: Db clef=bass
[K:clef=bass][M:2/4]D2 | 
DD | 
DB,//A,3// | 
A,F,/ z/ | 
A,2 | 
A,z | 
D3/B,/ | 
DB, | 
A,F, | 
E,E, | 
E,D, | 
B,,B,, | 
B,,2- | 
B,,z | 
E,3/B,,/ | 
D,D,/B,,/ | 
D,D, | 
B,,D, | 
D,/B,,/D, | 
D,/D,/D, | 
D,2 |]  



